X:1
T:Title
%%score { 1 | ( 2 3 ) }
L:1/8
Q:1/4=100
M:4/4
K:Eb
V:1 treble nm="Grand Piano"
V:2 bass 
V:3 bass 
V:1
 E2 F2 F2 G2 | [B,GB]2 [B,EG]2 [B,DF]4 | [B,E]2 [B,DF]2 [B,EG]2 [B,FB]2 | [Fe]2 [Fd]2 [Ec]4 | %4
w: A.~S.~Sullivan * * *||||
[M:2/4] [B,DB]4 | [DFB]2 [CE=A]2 |[M:4/4] G2 G2 _G2 =A2 | G4 [Fd]2 [Gc]2 | B2 B2 =A2 c2 | %9
w: |||||
 c4 [DFB]4 | [B,DF]2 [B,EG]2 [B,DA]2 [Dc]2 | F2 G2 A4 | G2 [DB]2 E2 [B,D]2 | C4 D4 | E8 |] %15
w: ||||||
V:2
 [E,G,B,]2 [E,A,D]2 [E,A,D]2 [E,B,E]2 | E,2 G,,2 B,,4 | G,2 F,2 E,2 D,2 | z4 B,2 z2 |[M:2/4] B,,4 | %5
 B,,2 C,2 |[M:4/4] [D,B,D]2 [D,B,D]2 [D,=A,D]2 [D,CD]2 | [G,B,D]4 [D,B,]2 [E,E]2 | %8
 [F,DF]2 [F,DF]2 [F,CF]2 [F,EF]2 | [F,EF]4 B,,4 | A,2 G,2 F,2 [B,,A,]2 | %11
 [D,A,B,]2 [E,G,B,]2 [F,B,D]4 | [E,B,E]2 [B,,A,]2 [C,G,]2 [G,,E,]2 | [A,,E,]4 [B,,A,B,]4 | %14
 [E,G,B,]8 |] %15
V:3
 x8 | x8 | x8 | [C,=A,]2 [B,,B,]2 F,2- [F,A,]2 |[M:2/4] x4 | x4 |[M:4/4] x8 | x8 | x8 | x8 | x8 | %11
 x8 | x8 | x8 | x8 |] %15

